apps/www/public/images/product/vector/highlight-openai-light.svg

<svg xmlns="http://www.w3.org/2000/svg" width="400" height="210" fill="none" viewBox="0 0 400 210"><g clip-path="url(#a)"><g filter="url(#b)"><ellipse cx="199" cy="170.5" fill="#00ffd9" rx="84" ry="83.5"/></g><path stroke="url(#c)" stroke-dasharray="2.05 3.41" stroke-width=".5" d="M-18 84.853c0-13.255 10.745-24 24-24h81.26c13.255 0 24 10.745 24 24V177c0 13.255-10.745 24-24 24H6c-13.255 0-24-10.745-24-24z"/><path stroke="url(#d)" stroke-dasharray="2.05 3.41" stroke-width=".5" d="M286.739 84.853c0-13.255 10.746-24 24-24H392c13.255 0 24 10.745 24 24V177c0 13.255-10.745 24-24 24h-81.261c-13.254 0-24-10.745-24-24z"/><path stroke="url(#e)" stroke-dasharray="2.05 3.41" stroke-width=".5" d="M-18-65c0-13.255 10.745-24 24-24h81.26c13.255 0 24 10.745 24 24v92.147c0 13.255-10.745 24-24 24H6c-13.255 0-24-10.745-24-24z"/><path stroke="url(#f)" stroke-dasharray="2.05 3.41" stroke-width=".5" d="M286.74-65c0-13.255 10.745-24 24-24H392c13.255 0 24 10.745 24 24v92.147c0 13.255-10.745 24-24 24h-81.26c-13.255 0-24-10.745-24-24z"/><path stroke="url(#g)" stroke-dasharray="2.05 3.41" stroke-width=".5" d="M123.683-65c0-13.255 10.745-24 24-24h102.363c13.254 0 24 10.745 24 24v92.147c0 13.255-10.746 24-24 24H147.683c-13.255 0-24-10.745-24-24z"/><path stroke="url(#h)" stroke-width="3" d="M165.781 60.886h66.464m-33.26.23V1.828"/><g filter="url(#i)"><rect width="150" height="139" x="124" y="62" fill="url(#j)" rx="24"/><path fill="url(#k)" d="M237.837 123.199a22.83 22.83 0 0 0-1.938-18.669c-4.954-8.655-14.922-13.106-24.644-11.035a22.69 22.69 0 0 0-17.074-7.635c-9.937 0-18.767 6.43-21.844 15.919a22.71 22.71 0 0 0-15.136 11.035c-4.984 8.654-3.846 19.535 2.83 26.953a22.75 22.75 0 0 0 1.938 18.639 22.9 22.9 0 0 0 24.674 11.066 22.6 22.6 0 0 0 17.044 7.665c9.937 0 18.767-6.429 21.844-15.918a22.6 22.6 0 0 0 15.105-11.035 23.03 23.03 0 0 0-2.799-26.954zm-7.076-15.671c1.969 3.462 2.707 7.511 2.03 11.437-.123-.093-.369-.217-.523-.309l-18.09-10.51a3.02 3.02 0 0 0-2.984 0l-21.197 12.302v-9.025l17.505-10.17c8.153-4.729 18.552-1.916 23.259 6.275m-40.764 18.762 8.922-5.193 8.922 5.193v10.355l-8.922 5.193-8.922-5.193zm4.153-34.464c3.999 0 7.845 1.39 10.922 3.956-.123.062-.37.217-.554.31l-18.09 10.478c-.923.525-1.477 1.514-1.477 2.596v24.605l-7.784-4.513v-20.339c0-9.459 7.6-17.093 17.014-17.124zm-31.781 23.986c2-3.462 5.107-6.12 8.861-7.511v21.606c0 1.082.554 2.04 1.477 2.596l21.166 12.271-7.814 4.544-17.475-10.138c-8.122-4.729-10.922-15.177-6.215-23.368m4.769 39.657c-2-3.431-2.707-7.511-2.031-11.436.124.092.37.216.523.309l18.091 10.509a3.02 3.02 0 0 0 2.984 0l21.166-12.302v9.026l-17.505 10.138c-8.153 4.699-18.552 1.917-23.259-6.244zm36.58 15.703a16.92 16.92 0 0 1-10.891-3.957c.123-.062.4-.216.554-.309l18.09-10.478a2.9 2.9 0 0 0 1.477-2.597v-24.573l7.783 4.513v20.307c0 9.459-7.63 17.125-17.013 17.125zm31.811-23.987c-1.999 3.462-5.137 6.121-8.86 7.481V133.06c0-1.082-.554-2.071-1.477-2.597l-21.197-12.302 7.784-4.513 17.505 10.139c8.153 4.729 10.922 15.176 6.215 23.368z"/><path stroke="url(#l)" stroke-width=".5" d="M172.577 132.717a3.25 3.25 0 0 1-1.597-2.81v-21.243c-3.547 1.402-6.483 3.964-8.394 7.273-4.638 8.071-1.879 18.367 6.123 23.027zm0 0 .004.003 20.794 12.055m-20.798-12.058 20.798 12.058m0 0-7.316 4.254-17.349-10.065zm37.169-37.123c1.88 3.306 2.621 7.154 2.059 10.906l-.03-.017a5 5 0 0 1-.176-.1l-.003-.002-18.09-10.509-.002-.001a3.27 3.27 0 0 0-3.232 0l-.002.001-20.821 12.084v-8.448l17.381-10.097c8.032-4.659 18.277-1.888 22.916 6.183Zm-53.127 1.267c0-9.114 7.16-16.509 16.149-16.861l-.018.018h.602c3.82 0 7.497 1.287 10.48 3.669-.079.045-.157.09-.224.123l-.007.003-.006.004-18.089 10.477v.001c-1.005.572-1.603 1.646-1.603 2.813v24.171l-7.284-4.223zm-10.063 46.424c-1.908-3.273-2.622-7.148-2.059-10.904l.031.017q.1.054.175.1l.004.002 18.09 10.509.002.001c.999.57 2.232.57 3.231 0l.002-.001 20.791-12.084v8.448l-17.38 10.066c-7.907 4.556-17.958 1.972-22.695-5.778h.027zm36.614 15.608v-.029h-.25a16.7 16.7 0 0 1-10.446-3.664c.087-.049.171-.098.236-.137l.002-.001 18.085-10.475a3.15 3.15 0 0 0 1.603-2.817v-24.136l7.283 4.223v20.163c0 9.238-7.384 16.738-16.513 16.873Zm31.314-23.921-.095.166.029.029c-1.913 3.228-4.836 5.728-8.297 7.079V133.06c0-1.167-.598-2.241-1.602-2.814h-.001l-20.823-12.085 7.286-4.224 17.38 10.066c8.032 4.659 10.762 14.954 6.123 23.027Zm5.571 3.278a23.275 23.275 0 0 0-2.741-27.145 23.08 23.08 0 0 0-1.997-18.758c-4.983-8.707-14.987-13.205-24.769-11.185a22.94 22.94 0 0 0-17.166-7.61c-9.997 0-18.885 6.438-22.035 15.954a22.97 22.97 0 0 0-15.161 11.125c-5.013 8.707-3.898 19.641 2.765 27.137a23 23 0 0 0 2.004 18.705 23.15 23.15 0 0 0 24.799 11.215 22.86 22.86 0 0 0 17.136 7.641c9.998 0 18.885-6.437 22.035-15.954a22.83 22.83 0 0 0 15.13-11.125Zm-50.606-23.874 8.672-5.047 8.672 5.047v10.067l-8.672 5.048-8.672-5.048z"/><rect width="151" height="140" x="123.5" y="61.5" stroke="url(#m)" rx="24.5"/></g><g filter="url(#n)"><path stroke="url(#o)" stroke-width="3" d="M151.965 60.886h94.096m-47.076.23V1.828"/></g></g><defs><radialGradient id="c" cx="0" cy="0" r="1" gradientTransform="matrix(0 123.673 -132.688 0 198.864 58.422)" gradientUnits="userSpaceOnUse"><stop stop-color="#119685"/><stop offset="1" stop-color="#202020"/></radialGradient><radialGradient id="d" cx="0" cy="0" r="1" gradientTransform="matrix(0 123.673 -132.688 0 198.864 58.422)" gradientUnits="userSpaceOnUse"><stop stop-color="#119685"/><stop offset="1" stop-color="#202020"/></radialGradient><radialGradient id="e" cx="0" cy="0" r="1" gradientTransform="matrix(0 123.673 -132.688 0 198.864 58.422)" gradientUnits="userSpaceOnUse"><stop stop-color="#119685"/><stop offset="1" stop-color="#202020"/></radialGradient><radialGradient id="f" cx="0" cy="0" r="1" gradientTransform="matrix(0 123.673 -132.688 0 198.864 58.422)" gradientUnits="userSpaceOnUse"><stop stop-color="#119685"/><stop offset="1" stop-color="#202020"/></radialGradient><radialGradient id="g" cx="0" cy="0" r="1" gradientTransform="matrix(0 123.673 -132.688 0 198.864 58.422)" gradientUnits="userSpaceOnUse"><stop stop-color="#119685"/><stop offset="1" stop-color="#202020"/></radialGradient><radialGradient id="h" cx="0" cy="0" r="1" gradientTransform="rotate(90 74.741 124.676)scale(32.4982)" gradientUnits="userSpaceOnUse"><stop stop-color="#3affe5"/><stop offset="1" stop-color="#38bbaa" stop-opacity="0"/></radialGradient><radialGradient id="j" cx="0" cy="0" r="1" gradientTransform="matrix(0 112.617 -166.125 0 199 88.383)" gradientUnits="userSpaceOnUse"><stop stop-color="#fff"/><stop offset="1" stop-color="#fff"/></radialGradient><radialGradient id="o" cx="0" cy="0" r="1" gradientTransform="rotate(90 74.741 124.676)scale(32.4982)" gradientUnits="userSpaceOnUse"><stop stop-color="#00cfb4"/><stop offset="1" stop-color="#38bbaa" stop-opacity="0"/></radialGradient><linearGradient id="k" x1="180.264" x2="217.049" y1="105.72" y2="172.22" gradientUnits="userSpaceOnUse"><stop stop-color="#4fd7b6"/><stop offset="1" stop-color="#4f7362" stop-opacity=".6"/></linearGradient><linearGradient id="l" x1="180.264" x2="217.049" y1="105.72" y2="172.22" gradientUnits="userSpaceOnUse"><stop stop-color="#5f5f5f"/><stop offset="1" stop-color="#d6d6d6" stop-opacity=".81"/></linearGradient><linearGradient id="m" x1="164.284" x2="164.284" y1="58.025" y2="133.992" gradientUnits="userSpaceOnUse"><stop stop-color="#00dba7"/><stop offset="1" stop-color="#dfdfdf" stop-opacity=".55"/></linearGradient><filter id="b" width="660" height="659" x="-131" y="-159" color-interpolation-filters="sRGB" filterUnits="userSpaceOnUse"><feFlood flood-opacity="0" result="BackgroundImageFix"/><feBlend in="SourceGraphic" in2="BackgroundImageFix" result="shape"/><feGaussianBlur result="effect1_foregroundBlur_4353_101652" stdDeviation="123"/></filter><filter id="i" width="178.072" height="167.072" x="109.964" y="47.964" color-interpolation-filters="sRGB" filterUnits="userSpaceOnUse"><feFlood flood-opacity="0" result="BackgroundImageFix"/><feGaussianBlur in="BackgroundImageFix" stdDeviation="6.518"/><feComposite in2="SourceAlpha" operator="in" result="effect1_backgroundBlur_4353_101652"/><feBlend in="SourceGraphic" in2="effect1_backgroundBlur_4353_101652" result="shape"/></filter><filter id="n" width="102.098" height="68.558" x="147.965" y="-2.172" color-interpolation-filters="sRGB" filterUnits="userSpaceOnUse"><feFlood flood-opacity="0" result="BackgroundImageFix"/><feBlend in="SourceGraphic" in2="BackgroundImageFix" result="shape"/><feGaussianBlur result="effect1_foregroundBlur_4353_101652" stdDeviation="2"/></filter><clipPath id="a"><path fill="#fff" d="M0 0h400v210H0z"/></clipPath></defs></svg>

<svg width="400" height="210" viewBox="0 0 400 210" fill="none" xmlns="http://www.w3.org/2000/svg">
<g clip-path="url(#clip0_4353_101652)">
<g filter="url(#filter0_f_4353_101652)">
<ellipse cx="199" cy="170.5" rx="84" ry="83.5" fill="#00FFD9"/>
</g>
<path d="M-18 84.853C-18 71.5982 -7.25483 60.853 6 60.853H87.2604C100.515 60.853 111.26 71.5982 111.26 84.853V177C111.26 190.255 100.515 201 87.2604 201H5.99999C-7.25485 201 -18 190.255 -18 177V84.853Z" stroke="url(#paint0_radial_4353_101652)" stroke-width="0.5" stroke-dasharray="2.05 3.41"/>
<path d="M286.739 84.853C286.739 71.5982 297.485 60.853 310.739 60.853H392C405.255 60.853 416 71.5982 416 84.853V177C416 190.255 405.255 201 392 201H310.739C297.485 201 286.739 190.255 286.739 177V84.853Z" stroke="url(#paint1_radial_4353_101652)" stroke-width="0.5" stroke-dasharray="2.05 3.41"/>
<path d="M-18 -65C-18 -78.2548 -7.25483 -89 6 -89H87.2604C100.515 -89 111.26 -78.2548 111.26 -65V27.147C111.26 40.4018 100.515 51.147 87.2604 51.147H5.99999C-7.25485 51.147 -18 40.4018 -18 27.147V-65Z" stroke="url(#paint2_radial_4353_101652)" stroke-width="0.5" stroke-dasharray="2.05 3.41"/>
<path d="M286.74 -65C286.74 -78.2548 297.485 -89 310.74 -89H392C405.255 -89 416 -78.2548 416 -65V27.147C416 40.4018 405.255 51.147 392 51.147H310.74C297.485 51.147 286.74 40.4018 286.74 27.147V-65Z" stroke="url(#paint3_radial_4353_101652)" stroke-width="0.5" stroke-dasharray="2.05 3.41"/>
<path d="M123.683 -65C123.683 -78.2548 134.428 -89 147.683 -89H250.046C263.3 -89 274.046 -78.2548 274.046 -65V27.147C274.046 40.4018 263.3 51.147 250.046 51.147H147.683C134.428 51.147 123.683 40.4018 123.683 27.147V-65Z" stroke="url(#paint4_radial_4353_101652)" stroke-width="0.5" stroke-dasharray="2.05 3.41"/>
<path d="M165.781 60.8862H232.245M198.985 61.1163V1.82788" stroke="url(#paint5_radial_4353_101652)" stroke-width="3"/>
<g filter="url(#filter1_b_4353_101652)">
<rect x="124" y="62" width="150" height="139" rx="24" fill="url(#paint6_radial_4353_101652)"/>
<path d="M237.837 123.199C239.898 116.986 239.19 110.186 235.899 104.53C230.945 95.8748 220.977 91.4238 211.255 93.4948C206.918 88.611 200.703 85.8291 194.181 85.86C184.244 85.86 175.414 92.2893 172.337 101.779C165.938 103.108 160.431 107.126 157.201 112.814C152.217 121.468 153.355 132.349 160.031 139.767C157.97 145.98 158.678 152.78 161.969 158.406C166.923 167.092 176.891 171.543 186.643 169.472C190.95 174.355 197.165 177.168 203.687 177.137C213.624 177.137 222.454 170.708 225.531 161.219C231.93 159.889 237.437 155.871 240.636 150.184C245.651 141.529 244.513 130.649 237.837 123.23V123.199ZM230.761 107.528C232.73 110.99 233.468 115.039 232.791 118.965C232.668 118.872 232.422 118.748 232.268 118.656L214.178 108.146C213.255 107.621 212.117 107.621 211.194 108.146L189.997 120.448V111.423L207.502 101.253C215.655 96.524 226.054 99.3368 230.761 107.528ZM189.997 126.29L198.919 121.097L207.841 126.29V136.645L198.919 141.838L189.997 136.645V126.29ZM194.15 91.8256C198.149 91.8256 201.995 93.2166 205.072 95.7821C204.949 95.8439 204.702 95.9985 204.518 96.0912L186.428 106.57C185.505 107.095 184.951 108.084 184.951 109.166V133.771L177.167 129.258V108.919C177.167 99.4604 184.767 91.8256 194.181 91.7947L194.15 91.8256ZM162.369 115.812C164.369 112.35 167.476 109.692 171.23 108.301V129.907C171.23 130.989 171.784 131.947 172.707 132.503L193.873 144.774L186.059 149.318L168.584 139.18C160.462 134.451 157.662 124.003 162.369 115.812ZM167.138 155.469C165.138 152.038 164.431 147.958 165.107 144.033C165.231 144.125 165.477 144.249 165.63 144.342L183.721 154.851C184.643 155.377 185.782 155.377 186.705 154.851L207.871 142.549V151.575L190.366 161.713C182.213 166.412 171.814 163.63 167.107 155.469H167.138ZM203.718 171.172C199.749 171.172 195.873 169.781 192.827 167.215C192.95 167.153 193.227 166.999 193.381 166.906L211.471 156.428C212.394 155.902 212.978 154.913 212.948 153.831V129.258L220.731 133.771V154.078C220.731 163.537 213.101 171.203 203.718 171.203V171.172ZM235.529 147.185C233.53 150.647 230.392 153.306 226.669 154.666V133.06C226.669 131.978 226.115 130.989 225.192 130.463L203.995 118.161L211.779 113.648L229.284 123.787C237.437 128.516 240.206 138.963 235.499 147.155L235.529 147.185Z" fill="url(#paint7_linear_4353_101652)"/>
<path d="M172.577 132.717L172.577 132.717C171.581 132.117 170.98 131.078 170.98 129.907V108.664C167.433 110.066 164.497 112.628 162.586 115.937C157.948 124.008 160.707 134.304 168.709 138.964L172.577 132.717ZM172.577 132.717L172.581 132.72L193.375 144.775M172.577 132.717L193.375 144.775M193.375 144.775L186.059 149.029L168.71 138.964L193.375 144.775ZM230.544 107.652C232.424 110.958 233.165 114.806 232.603 118.558C232.593 118.553 232.583 118.547 232.573 118.541C232.507 118.505 232.448 118.472 232.397 118.441L232.394 118.439L214.304 107.93L214.302 107.929C213.302 107.36 212.07 107.36 211.07 107.929L211.068 107.93L190.247 120.014V111.566L207.628 101.469C215.66 96.8102 225.905 99.5806 230.544 107.652ZM177.417 108.919C177.417 99.8046 184.577 92.4102 193.566 92.0578L193.548 92.0756H194.15C197.97 92.0756 201.647 93.3633 204.63 95.7447C204.551 95.7905 204.473 95.8341 204.406 95.8678L204.399 95.8712L204.393 95.8749L186.304 106.352C186.304 106.353 186.304 106.353 186.304 106.353C185.299 106.925 184.701 107.999 184.701 109.166V133.337L177.417 129.114V108.919ZM167.354 155.343C165.446 152.07 164.732 148.195 165.295 144.439C165.306 144.445 165.316 144.45 165.326 144.456C165.392 144.492 165.451 144.526 165.501 144.556L165.501 144.556L165.505 144.558L183.595 155.067L183.597 155.068C184.596 155.638 185.829 155.638 186.828 155.068L186.83 155.067L207.621 142.983V151.431L190.241 161.497C182.334 166.053 172.283 163.469 167.546 155.719H167.573L167.354 155.343ZM203.968 170.951V170.922H203.718C199.93 170.922 196.227 169.635 193.272 167.258C193.359 167.209 193.443 167.16 193.508 167.121C193.508 167.121 193.509 167.121 193.51 167.12L211.595 156.645C211.595 156.645 211.595 156.645 211.595 156.645C212.594 156.076 213.23 155.004 213.198 153.828V129.692L220.481 133.915V154.078C220.481 163.316 213.097 170.816 203.968 170.951ZM235.282 147.03L235.187 147.196L235.216 147.225C233.303 150.453 230.38 152.953 226.919 154.304V133.06C226.919 131.893 226.321 130.819 225.317 130.246C225.317 130.246 225.316 130.246 225.316 130.246L204.493 118.161L211.779 113.937L229.159 124.003C237.191 128.662 239.921 138.957 235.282 147.03ZM240.853 150.308C245.899 141.598 244.781 130.659 238.112 123.163C240.149 116.913 239.422 110.088 236.115 104.405C231.132 95.6983 221.128 91.2002 211.346 93.2204C206.965 88.3505 200.726 85.5791 194.18 85.61C184.183 85.6102 175.295 92.0475 172.145 101.564C165.736 102.937 160.226 106.982 156.984 112.689C151.971 121.396 153.086 132.33 159.749 139.826C157.721 146.069 158.45 152.885 161.753 158.531C166.736 167.268 176.74 171.766 186.552 169.746C190.903 174.616 197.142 177.418 203.688 177.387C213.686 177.387 222.573 170.95 225.723 161.433C232.132 160.06 237.642 156.016 240.853 150.308ZM190.247 126.434L198.919 121.387L207.591 126.434V136.501L198.919 141.549L190.247 136.501V126.434Z" stroke="url(#paint8_linear_4353_101652)" stroke-width="0.5"/>
<rect x="123.5" y="61.5" width="151" height="140" rx="24.5" stroke="url(#paint9_linear_4353_101652)"/>
</g>
<g filter="url(#filter2_f_4353_101652)">
<path d="M151.965 60.8862H246.061M198.985 61.1163V1.82788" stroke="url(#paint10_radial_4353_101652)" stroke-width="3"/>
</g>
</g>
<defs>
<filter id="filter0_f_4353_101652" x="-131" y="-159" width="660" height="659" filterUnits="userSpaceOnUse" color-interpolation-filters="sRGB">
<feFlood flood-opacity="0" result="BackgroundImageFix"/>
<feBlend mode="normal" in="SourceGraphic" in2="BackgroundImageFix" result="shape"/>
<feGaussianBlur stdDeviation="123" result="effect1_foregroundBlur_4353_101652"/>
</filter>
<filter id="filter1_b_4353_101652" x="109.964" y="47.9638" width="178.072" height="167.072" filterUnits="userSpaceOnUse" color-interpolation-filters="sRGB">
<feFlood flood-opacity="0" result="BackgroundImageFix"/>
<feGaussianBlur in="BackgroundImageFix" stdDeviation="6.51812"/>
<feComposite in2="SourceAlpha" operator="in" result="effect1_backgroundBlur_4353_101652"/>
<feBlend mode="normal" in="SourceGraphic" in2="effect1_backgroundBlur_4353_101652" result="shape"/>
</filter>
<filter id="filter2_f_4353_101652" x="147.965" y="-2.17212" width="102.098" height="68.5583" filterUnits="userSpaceOnUse" color-interpolation-filters="sRGB">
<feFlood flood-opacity="0" result="BackgroundImageFix"/>
<feBlend mode="normal" in="SourceGraphic" in2="BackgroundImageFix" result="shape"/>
<feGaussianBlur stdDeviation="2" result="effect1_foregroundBlur_4353_101652"/>
</filter>
<radialGradient id="paint0_radial_4353_101652" cx="0" cy="0" r="1" gradientUnits="userSpaceOnUse" gradientTransform="translate(198.864 58.422) rotate(90) scale(123.673 132.688)">
<stop stop-color="#119685"/>
<stop offset="1" stop-color="#202020"/>
</radialGradient>
<radialGradient id="paint1_radial_4353_101652" cx="0" cy="0" r="1" gradientUnits="userSpaceOnUse" gradientTransform="translate(198.864 58.422) rotate(90) scale(123.673 132.688)">
<stop stop-color="#119685"/>
<stop offset="1" stop-color="#202020"/>
</radialGradient>
<radialGradient id="paint2_radial_4353_101652" cx="0" cy="0" r="1" gradientUnits="userSpaceOnUse" gradientTransform="translate(198.864 58.422) rotate(90) scale(123.673 132.688)">
<stop stop-color="#119685"/>
<stop offset="1" stop-color="#202020"/>
</radialGradient>
<radialGradient id="paint3_radial_4353_101652" cx="0" cy="0" r="1" gradientUnits="userSpaceOnUse" gradientTransform="translate(198.864 58.422) rotate(90) scale(123.673 132.688)">
<stop stop-color="#119685"/>
<stop offset="1" stop-color="#202020"/>
</radialGradient>
<radialGradient id="paint4_radial_4353_101652" cx="0" cy="0" r="1" gradientUnits="userSpaceOnUse" gradientTransform="translate(198.864 58.422) rotate(90) scale(123.673 132.688)">
<stop stop-color="#119685"/>
<stop offset="1" stop-color="#202020"/>
</radialGradient>
<radialGradient id="paint5_radial_4353_101652" cx="0" cy="0" r="1" gradientUnits="userSpaceOnUse" gradientTransform="translate(199.417 49.9341) rotate(90) scale(32.4982 32.4982)">
<stop stop-color="#3AFFE5"/>
<stop offset="1" stop-color="#38BBAA" stop-opacity="0"/>
</radialGradient>
<radialGradient id="paint6_radial_4353_101652" cx="0" cy="0" r="1" gradientUnits="userSpaceOnUse" gradientTransform="translate(199 88.3834) rotate(90) scale(112.617 166.125)">
<stop stop-color="white"/>
<stop offset="1" stop-color="white"/>
</radialGradient>
<linearGradient id="paint7_linear_4353_101652" x1="180.264" y1="105.72" x2="217.049" y2="172.22" gradientUnits="userSpaceOnUse">
<stop stop-color="#4FD7B6"/>
<stop offset="1" stop-color="#4F7362" stop-opacity="0.6"/>
</linearGradient>
<linearGradient id="paint8_linear_4353_101652" x1="180.264" y1="105.72" x2="217.049" y2="172.22" gradientUnits="userSpaceOnUse">
<stop stop-color="#5F5F5F"/>
<stop offset="1" stop-color="#D6D6D6" stop-opacity="0.81"/>
</linearGradient>
<linearGradient id="paint9_linear_4353_101652" x1="164.284" y1="58.0248" x2="164.284" y2="133.992" gradientUnits="userSpaceOnUse">
<stop stop-color="#00DBA7"/>
<stop offset="1" stop-color="#DFDFDF" stop-opacity="0.55"/>
</linearGradient>
<radialGradient id="paint10_radial_4353_101652" cx="0" cy="0" r="1" gradientUnits="userSpaceOnUse" gradientTransform="translate(199.417 49.9341) rotate(90) scale(32.4982 32.4982)">
<stop stop-color="#00CFB4"/>
<stop offset="1" stop-color="#38BBAA" stop-opacity="0"/>
</radialGradient>
<clipPath id="clip0_4353_101652">
<rect width="400" height="210" fill="white"/>
</clipPath>
</defs>
</svg>
